X: 18130
T: Humours Of Castlecomer, The
R: jig
M: 6/8
K: Edorian
GF|:~E3 EFA|~B3 B2c|ded dcB|ABA FED|
~E3 EFA|~B3 B2c|dcB AFD|1 E3 EGF:|2 E3 E2e||
|:eBe eBe|efg f2e|ded dcB|ABA FED|
eBe eBe|efg f2e|dcB AFD|1 E3 E2e:|2 E3 EGF||

